chrome/img/svgs/stopwatch-icon.svg

<svg width="83" height="96" viewBox="0 0 83 96" xmlns="http://www.w3.org/2000/svg"><title>stopwatch</title><defs><linearGradient x1="50%" y1="22.832%" x2="50%" y2="100%" id="a"><stop stop-color="#3AA621" offset="0%"/><stop stop-color="#31931A" offset="100%"/></linearGradient></defs><path d="M41.6 100.3c2.7 0 4.9-2.2 4.9-4.9 0-.6-.1-1.2-.3-1.7l18-19.7c.3-.4.3-.9 0-1.2-.3-.3-.9-.4-1.2 0L43.2 90.9c-.5-.1-.9-.3-1.4-.3-2.9-.1-5.1 2.1-5.1 4.8 0 2.7 2.2 4.9 4.9 4.9zm34.6-4.9c0 19.1-15.5 34.6-34.6 34.6S7 114.5 7 95.4s15.5-34.6 34.6-34.6 34.6 15.5 34.6 34.6zm-5.8-33.8c1.4-2 .9-4.9-1.1-6.3-2-1.4-4.9-.9-6.3 1.1l-2.2 3.1c-4.5-2.4-9.5-4-14.7-4.5v-6h5.1c2.5 0 4.5-2 4.5-4.5s-2-4.5-4.5-4.5H31.9c-2.5 0-4.5 2-4.5 4.5s2 4.5 4.5 4.5H37v6c-5.2.6-10.1 2.1-14.7 4.5l-2.2-3.1c-1.4-2-4.2-2.5-6.3-1.1-2.1 1.4-2.5 4.2-1.1 6.3l2.2 3.1c-.7.6-1.4 1.3-2.1 1.9C5.1 74.3.9 84.5.9 95.3s4.2 21 11.9 28.7c7.7 7.7 17.9 11.9 28.7 11.9s21-4.2 28.7-11.9c7.7-7.7 11.9-17.9 11.9-28.7s-4.2-21-11.9-28.7c-.7-.7-1.4-1.3-2.1-1.9l2.3-3.1z" transform="translate(0 -40)" fill-rule="nonzero" fill="url(#a)"/></svg>

<?xml version="1.0" encoding="UTF-8"?>
<svg width="83px" height="96px" viewBox="0 0 83 96" version="1.1" xmlns="http://www.w3.org/2000/svg" xmlns:xlink="http://www.w3.org/1999/xlink">
    <!-- Generator: Sketch 42 (36781) - http://www.bohemiancoding.com/sketch -->
    <title>stopwatch</title>
    <desc>Created with Sketch.</desc>
    <defs>
        <linearGradient x1="50%" y1="22.8316327%" x2="50%" y2="100%" id="linearGradient-1">
            <stop stop-color="#3AA621" offset="0%"></stop>
            <stop stop-color="#31931A" offset="100%"></stop>
        </linearGradient>
    </defs>
    <g id="Icons" stroke="none" stroke-width="1" fill="none" fill-rule="evenodd">
        <g id="noun_149858" transform="translate(0.000000, -40.000000)" fill-rule="nonzero" fill="url(#linearGradient-1)">
            <path d="M41.6,100.3 C44.3,100.3 46.5,98.1 46.5,95.4 C46.5,94.8 46.4,94.2 46.2,93.7 L64.2,74 C64.5,73.6 64.5,73.1 64.2,72.8 C63.9,72.5 63.3,72.4 63,72.8 L43.2,90.9 C42.7,90.8 42.3,90.6 41.8,90.6 C38.9,90.5 36.7,92.7 36.7,95.4 C36.7,98.1 38.9,100.3 41.6,100.3 Z M76.2,95.4 C76.2,114.5 60.7,130 41.6,130 C22.5,130 7,114.5 7,95.4 C7,76.3 22.5,60.8 41.6,60.8 C60.7,60.8 76.2,76.3 76.2,95.4 Z M70.4,61.6 C71.8,59.6 71.3,56.7 69.3,55.3 C67.3,53.9 64.4,54.4 63,56.4 L60.8,59.5 C56.3,57.1 51.3,55.5 46.1,55 L46.1,49 L51.2,49 C53.7,49 55.7,47 55.7,44.5 C55.7,42 53.7,40 51.2,40 L31.9,40 C29.4,40 27.4,42 27.4,44.5 C27.4,47 29.4,49 31.9,49 L37,49 L37,55 C31.8,55.6 26.9,57.1 22.3,59.5 L20.1,56.4 C18.7,54.4 15.9,53.9 13.8,55.3 C11.7,56.7 11.3,59.5 12.7,61.6 L14.9,64.7 C14.2,65.3 13.5,66 12.8,66.6 C5.1,74.3 0.9,84.5 0.9,95.3 C0.9,106.1 5.1,116.3 12.8,124 C20.5,131.7 30.7,135.9 41.5,135.9 C52.3,135.9 62.5,131.7 70.2,124 C77.9,116.3 82.1,106.1 82.1,95.3 C82.1,84.5 77.9,74.3 70.2,66.6 C69.5,65.9 68.8,65.3 68.1,64.7 L70.4,61.6 Z" id="stopwatch"></path>
        </g>
    </g>
</svg>
